flaticon/hand-gestures/tap-29.svg

<svg xmlns="http://www.w3.org/2000/svg" width="32" height="32" viewBox="0 0 24 24">
    <path d="M13.800781 4.800781C11.359375 4.800781 9.398438 6.761719 9.398438 9.199219L9.398438 13.601562 18.199219 13.601562 18.199219 9.199219C18.199219 6.761719 16.238281 4.800781 13.800781 4.800781zM17.398438 12.800781L10.199219 12.800781 10.199219 9.199219C10.199219 7.199219 11.800781 5.601562 13.800781 5.601562 15.800781 5.601562 17.398438 7.199219 17.398438 9.199219zM17.800781 16.398438L9.800781 16.398438C9.558594 16.398438 9.398438 16.558594 9.398438 16.800781 9.398438 17.039062 9.558594 17.199219 9.800781 17.199219L17.800781 17.199219C18.039062 17.199219 18.199219 17.039062 18.199219 16.800781 18.199219 16.558594 18.039062 16.398438 17.800781 16.398438zM17.800781 18L9.800781 18C9.558594 18 9.398438 18.160156 9.398438 18.398438 9.398438 18.640625 9.558594 18.800781 9.800781 18.800781L17.800781 18.800781C18.039062 18.800781 18.199219 18.640625 18.199219 18.398438 18.199219 18.160156 18.039062 18 17.800781 18zM17.800781 18"/>
    <path d="M 23.398438 9.601562 C 23.398438 4.320312 19.078125 0 13.800781 0 C 11.679688 0 9.640625 0.71875 7.960938 2 C 7.800781 2.121094 7.761719 2.359375 7.878906 2.519531 C 8 2.71875 8.28125 2.71875 8.441406 2.601562 C 10 1.441406 11.839844 0.800781 13.800781 0.800781 C 18.640625 0.800781 22.601562 4.761719 22.601562 9.601562 C 22.601562 12.078125 21.597656 14.363281 19.800781 16.023438 L 19.800781 9.199219 C 19.800781 5.878906 17.121094 3.199219 13.800781 3.199219 C 10.480469 3.199219 7.800781 5.878906 7.800781 9.199219 L 7.800781 16.054688 C 6.585938 14.9375 5.695312 13.46875 5.28125 11.878906 C 5.238281 11.679688 5 11.558594 4.800781 11.601562 C 4.601562 11.679688 4.480469 11.878906 4.519531 12.078125 C 5.0625 14.054688 6.203125 15.804688 7.800781 17.074219 L 7.800781 18 C 7.800781 21.320312 10.480469 24 13.800781 24 C 17.121094 24 19.800781 21.320312 19.800781 18 L 19.800781 17.074219 C 22.101562 15.234375 23.398438 12.53125 23.398438 9.601562 Z M 13.800781 23.199219 C 10.921875 23.199219 8.601562 20.878906 8.601562 18 L 8.601562 9.199219 C 8.601562 6.320312 10.921875 4 13.800781 4 C 16.679688 4 19 6.320312 19 9.199219 L 19 16.824219 C 18.996094 16.851562 18.996094 16.878906 19 16.90625 L 19 18 C 19 20.878906 16.679688 23.199219 13.800781 23.199219 Z M 13.800781 23.199219"/>
    <path d="M 6.199219 10.398438 L 6.601562 10.398438 C 6.839844 10.398438 7 10.238281 7 10 C 7 9.761719 6.839844 9.601562 6.601562 9.601562 L 6.199219 9.601562 L 6.199219 8.398438 C 6.199219 7.375 5.761719 6.554688 4.929688 6 C 5.761719 5.445312 6.199219 4.625 6.199219 3.601562 L 6.199219 2.800781 L 6.601562 2.800781 C 6.839844 2.800781 7 2.640625 7 2.398438 C 7 2.160156 6.839844 2 6.601562 2 L 1 2 C 0.761719 2 0.601562 2.160156 0.601562 2.398438 C 0.601562 2.640625 0.761719 2.800781 1 2.800781 L 1.398438 2.800781 L 1.398438 3.601562 C 1.398438 4.65625 1.808594 5.480469 2.628906 6.015625 C 1.867188 6.566406 1.398438 7.460938 1.398438 8.398438 L 1.398438 9.601562 L 1 9.601562 C 0.761719 9.601562 0.601562 9.761719 0.601562 10 C 0.601562 10.238281 0.761719 10.398438 1 10.398438 Z M 2.199219 2.800781 L 5.398438 2.800781 L 5.398438 3.601562 C 5.398438 4.558594 4.960938 5.199219 4 5.601562 L 3.558594 5.601562 C 2.640625 5.199219 2.199219 4.558594 2.199219 3.601562 Z M 5.398438 9.601562 L 2.199219 9.601562 L 2.199219 8.398438 C 2.199219 7.558594 2.761719 6.761719 3.558594 6.398438 L 4 6.398438 C 4.960938 6.800781 5.398438 7.441406 5.398438 8.398438 Z M 5.398438 9.601562"/>
</svg>

<svg xmlns="http://www.w3.org/2000/svg" width="32" height="32" viewBox="0 0 24 24">
    <path d="M13.8 4.8a4.389 4.389 0 0 0-4.402 4.4v4.402H18.2V9.199a4.388 4.388 0 0 0-4.398-4.398zm3.598 8H10.2V9.2c0-2 1.602-3.598 3.602-3.598 2 0 3.597 1.597 3.597 3.597zm0 0M17.8 16.398h-8c-.241 0-.402.16-.402.403 0 .238.16.398.403.398h8c.238 0 .398-.16.398-.398 0-.242-.16-.403-.398-.403zm0 0M17.8 18h-8c-.241 0-.402.16-.402.398 0 .243.16.403.403.403h8c.238 0 .398-.16.398-.403 0-.238-.16-.398-.398-.398zm0 0"/>
    <path d="M23.398 9.602C23.398 4.32 19.078 0 13.801 0 11.68 0 9.64.719 7.96 2c-.16.121-.2.36-.082.52.121.199.402.199.562.082C10 1.442 11.84.8 13.801.8c4.84 0 8.8 3.96 8.8 8.8a8.66 8.66 0 0 1-2.8 6.422V9.2c0-3.32-2.68-6-6-6s-6 2.68-6 6v6.856a8.701 8.701 0 0 1-2.52-4.176c-.043-.2-.281-.32-.48-.277a.433.433 0 0 0-.281.476 9.618 9.618 0 0 0 3.28 4.996V18c0 3.32 2.68 6 6 6 3.321 0 6-2.68 6-6v-.926a9.483 9.483 0 0 0 3.598-7.472zm-9.597 13.597A5.19 5.19 0 0 1 8.6 18V9.2a5.19 5.19 0 0 1 5.2-5.2A5.19 5.19 0 0 1 19 9.2v7.624a.289.289 0 0 0 0 .082V18a5.19 5.19 0 0 1-5.2 5.2zm0 0"/>
    <path d="M6.2 10.398h.402c.238 0 .398-.16.398-.398 0-.238-.16-.398-.398-.398h-.403V8.398C6.2 7.375 5.762 6.555 4.93 6c.833-.555 1.27-1.375 1.27-2.398V2.8h.403C6.84 2.8 7 2.64 7 2.398 7 2.16 6.84 2 6.602 2H1c-.238 0-.398.16-.398.398 0 .243.16.403.398.403h.398v.8c0 1.055.41 1.88 1.23 2.415a2.966 2.966 0 0 0-1.23 2.382v1.204H1c-.238 0-.398.16-.398.398 0 .238.16.398.398.398zm-4-7.597h3.198v.8c0 .958-.437 1.598-1.398 2h-.441c-.918-.402-1.36-1.042-1.36-2zm3.198 6.8H2.2V8.399c0-.84.563-1.636 1.36-2H4c.96.403 1.398 1.043 1.398 2zm0 0"/>
</svg>
